X: 15249
T: Girl Of The House, The
R: jig
M: 6/8
K: Dmixolydian
|:AG|FAD DFG|AFA GEA|DED AGE|FAD DAG|
EFF GFG|GAA c2A|dcA GEA|DED D:|
|:AB|Bcc cAG|FGA GFG|AdB cAG|Ad^c dag|
fed cAG|EFA GED|dcA GEA|DED D:|

